build/images/content/slider/img_5.svg

<svg width="409" height="480" viewBox="0 0 409 480" fill="none" xmlns="http://www.w3.org/2000/svg">
<path opacity="0.5" d="M211.56 227.515L138.827 236.553L163.504 298.092M211.56 227.515L273.471 236.553L251.824 298.092M211.56 227.515L207.443 200.842M211.56 227.515L163.504 298.092M211.56 227.515L251.824 298.092M251.824 298.092L204.633 351.885L163.504 298.092M251.824 298.092H163.504M251.824 298.092L273.471 313.154M163.504 298.092L138.827 315.306" stroke="#00BBD3" stroke-width="2"/>
<g filter="url(#filter0_d)">
<path d="M207.432 200.842L137.963 236.989M207.432 200.842L273.47 236.989M207.432 200.842L240.451 251.62M207.432 200.842L157.26 251.62M137.963 236.989V315.738M137.963 236.989L157.26 251.62M137.963 315.738L157.26 251.62M137.963 315.738L204.43 351.885M137.963 315.738L192.852 323.484M157.26 251.62L192.852 323.484M157.26 251.62H240.451M192.852 323.484L240.451 251.62M192.852 323.484L273.47 312.726M192.852 323.484L204.43 351.885M240.451 251.62L273.47 312.726M240.451 251.62L273.47 236.989M273.47 312.726V236.989M273.47 312.726L204.43 351.885" stroke="#00BBD3" stroke-width="2"/>
</g>
<g filter="url(#filter1_d)">
<path d="M217.628 142.253C252.331 145.743 284.346 162.431 307.011 188.842C329.676 215.253 341.245 249.354 339.314 284.047C337.383 318.741 322.099 351.357 296.641 375.11C271.183 398.862 237.512 411.92 202.634 411.564C167.756 411.208 134.36 397.465 109.396 373.198C84.4318 348.931 69.8221 316.009 68.6046 281.284C67.387 246.558 79.6554 212.701 102.859 186.758C126.062 160.815 158.413 144.784 193.181 142.004" stroke="#00BBD3" stroke-width="4" stroke-linecap="round"/>
</g>
<path opacity="0.2" fill-rule="evenodd" clip-rule="evenodd" d="M164.798 130.699C126.288 141.017 93.4546 166.212 73.5203 200.739C53.586 235.266 48.1841 276.298 58.5028 314.808C59.6463 319.076 57.1137 323.462 52.8459 324.606C48.5782 325.749 44.1915 323.217 43.048 318.949C31.631 276.34 37.6079 230.941 59.6639 192.739C81.7199 154.537 118.048 126.661 160.657 115.244C164.925 114.1 169.312 116.633 170.455 120.901C171.599 125.168 169.066 129.555 164.798 130.699ZM355.099 323.68C350.831 322.536 348.299 318.149 349.442 313.882C359.761 275.372 354.359 234.34 334.425 199.812C314.491 165.285 281.657 140.091 243.147 129.772C238.879 128.629 236.346 124.242 237.49 119.974C238.633 115.707 243.02 113.174 247.288 114.317C289.897 125.734 326.225 153.61 348.281 191.812C370.337 230.015 376.314 275.414 364.897 318.023C363.754 322.29 359.367 324.823 355.099 323.68ZM97.6791 381.734C94.5549 378.61 89.4895 378.61 86.3654 381.734C83.2412 384.858 83.2412 389.923 86.3654 393.048C117.557 424.24 159.863 441.763 203.975 441.763C248.087 441.763 290.392 424.24 321.584 393.048C324.708 389.923 324.708 384.858 321.584 381.734C318.46 378.61 313.394 378.61 310.27 381.734C282.079 409.925 243.843 425.763 203.975 425.763C164.106 425.763 125.87 409.925 97.6791 381.734Z" fill="#00BBD3"/>
<g opacity="0.2">
<path fill-rule="evenodd" clip-rule="evenodd" d="M116.14 358.553C117.713 357.002 120.245 357.02 121.796 358.593C132.592 369.545 145.44 378.263 159.605 384.25C173.771 390.237 188.976 393.375 204.354 393.485C219.733 393.595 234.982 390.675 249.231 384.892C263.481 379.108 276.452 370.575 287.404 359.779C288.977 358.228 291.51 358.246 293.061 359.82C294.611 361.393 294.593 363.925 293.02 365.476C281.32 377.01 267.463 386.126 252.24 392.304C237.017 398.483 220.726 401.602 204.297 401.484C187.869 401.367 171.624 398.015 156.491 391.619C141.358 385.223 127.633 375.91 116.099 364.21C114.548 362.636 114.566 360.104 116.14 358.553ZM176.508 158.327C177.087 160.459 175.828 162.657 173.696 163.235C158.855 167.265 144.953 174.179 132.784 183.582C120.615 192.984 110.417 204.692 102.772 218.036C95.1275 231.38 90.186 246.099 88.2298 261.352C86.2736 276.606 87.341 292.095 91.371 306.936C91.9499 309.068 90.6909 311.266 88.559 311.845C86.4271 312.423 84.2295 311.165 83.6506 309.033C79.3453 293.178 78.205 276.63 80.2948 260.334C82.3847 244.039 87.6637 228.314 95.8305 214.059C103.997 199.804 114.892 187.296 127.892 177.251C140.893 167.206 155.745 159.82 171.599 155.515C173.731 154.936 175.929 156.195 176.508 158.327ZM316.956 309.958C316.321 312.074 317.522 314.304 319.638 314.939C321.754 315.574 323.984 314.373 324.619 312.257C329.339 296.52 330.914 280.008 329.253 263.664C327.591 247.319 322.727 231.461 314.938 216.996C307.148 202.531 296.586 189.742 283.854 179.359C271.122 168.976 256.469 161.202 240.733 156.482C238.617 155.847 236.387 157.048 235.752 159.164C235.118 161.28 236.318 163.51 238.434 164.145C253.164 168.563 266.88 175.84 278.798 185.559C290.716 195.278 300.603 207.249 307.894 220.789C315.186 234.329 319.739 249.173 321.294 264.472C322.848 279.772 321.374 295.228 316.956 309.958Z" fill="#00BBD3"/>
<path fill-rule="evenodd" clip-rule="evenodd" d="M116.14 358.553C117.713 357.002 120.245 357.02 121.796 358.593C132.592 369.545 145.44 378.263 159.605 384.25C173.771 390.237 188.976 393.375 204.354 393.485C219.733 393.595 234.982 390.675 249.231 384.892C263.481 379.108 276.452 370.575 287.404 359.779C288.977 358.228 291.51 358.246 293.061 359.82C294.611 361.393 294.593 363.925 293.02 365.476C281.32 377.01 267.463 386.126 252.24 392.304C237.017 398.483 220.726 401.602 204.297 401.484C187.869 401.367 171.624 398.015 156.491 391.619C141.358 385.223 127.633 375.91 116.099 364.21C114.548 362.636 114.566 360.104 116.14 358.553ZM176.508 158.327C177.087 160.459 175.828 162.657 173.696 163.235C158.855 167.265 144.953 174.179 132.784 183.582C120.615 192.984 110.417 204.692 102.772 218.036C95.1275 231.38 90.186 246.099 88.2298 261.352C86.2736 276.606 87.341 292.095 91.371 306.936C91.9499 309.068 90.6909 311.266 88.559 311.845C86.4271 312.423 84.2295 311.165 83.6506 309.033C79.3453 293.178 78.205 276.63 80.2948 260.334C82.3847 244.039 87.6637 228.314 95.8305 214.059C103.997 199.804 114.892 187.296 127.892 177.251C140.893 167.206 155.745 159.82 171.599 155.515C173.731 154.936 175.929 156.195 176.508 158.327ZM316.956 309.958C316.321 312.074 317.522 314.304 319.638 314.939C321.754 315.574 323.984 314.373 324.619 312.257C329.339 296.52 330.914 280.008 329.253 263.664C327.591 247.319 322.727 231.461 314.938 216.996C307.148 202.531 296.586 189.742 283.854 179.359C271.122 168.976 256.469 161.202 240.733 156.482C238.617 155.847 236.387 157.048 235.752 159.164C235.118 161.28 236.318 163.51 238.434 164.145C253.164 168.563 266.88 175.84 278.798 185.559C290.716 195.278 300.603 207.249 307.894 220.789C315.186 234.329 319.739 249.173 321.294 264.472C322.848 279.772 321.374 295.228 316.956 309.958Z" fill="#00BBD3"/>
</g>
<circle opacity="0.2" r="8" transform="matrix(1 0 0 -1 342 352)" fill="#00BBD3"/>
<circle opacity="0.2" r="8" transform="matrix(1 0 0 -1 67 356)" fill="#00BBD3"/>
<g filter="url(#filter2_d)">
<circle r="2" transform="matrix(1 0 0 -1 206 142)" fill="#00BBD3"/>
</g>
<g filter="url(#filter3_d)">
<circle r="2" transform="matrix(1 0 0 -1 206 133)" fill="#00BBD3"/>
</g>
<g filter="url(#filter4_d)">
<circle r="2" transform="matrix(1 0 0 -1 206 102)" fill="#00BBD3"/>
</g>
<g filter="url(#filter5_d)">
<circle r="8" transform="matrix(1 0 0 -1 206 117)" fill="#00BBD3"/>
</g>
<g filter="url(#filter6_d)">
<circle r="2" transform="matrix(1 0 0 -1 206 92)" fill="#00BBD3"/>
</g>
<g filter="url(#filter7_d)">
<circle cx="206.5" cy="49.5" r="33.5" stroke="#00BBD3" stroke-width="2"/>
</g>
<path opacity="0.2" d="M183.345 87.8813C174.747 82.8717 168.053 75.1536 164.308 65.9343C160.563 56.715 159.98 46.5145 162.649 36.9285C165.319 27.3424 171.09 18.9115 179.061 12.9545C187.031 6.99747 196.752 3.85037 206.701 4.00547C216.651 4.16057 226.269 7.60912 234.05 13.8117C241.831 20.0143 247.337 28.621 249.706 38.2856C252.075 47.9502 251.174 58.1275 247.144 67.2256C243.114 76.3237 236.182 83.8294 227.432 88.5686" stroke="#00BBD3" stroke-width="8" stroke-linecap="round"/>
<g filter="url(#filter8_d)">
<path fill-rule="evenodd" clip-rule="evenodd" d="M201.22 40.2546C201.22 36.6501 203.695 34 206.438 34C209.181 34 211.656 36.6501 211.656 40.2546C211.656 43.8592 209.181 46.5093 206.438 46.5093C203.695 46.5093 201.22 43.8592 201.22 40.2546ZM206.438 32C202.312 32 199.22 35.8459 199.22 40.2546C199.22 44.6634 202.312 48.5093 206.438 48.5093C210.564 48.5093 213.656 44.6634 213.656 40.2546C213.656 35.8459 210.564 32 206.438 32ZM206.955 51.691C201.563 51.691 198.058 53.3149 195.896 55.4051C193.761 57.4692 193 59.9298 193 61.5003C193 61.9352 193.281 62.3202 193.695 62.4527L206.65 66.5982C206.852 66.6629 207.07 66.6616 207.271 66.5945L219.707 62.449C220.116 62.3129 220.391 61.9307 220.391 61.5003C220.391 59.934 219.634 57.4789 217.572 55.4169C215.48 53.3244 212.103 51.691 206.955 51.691ZM206.948 64.5938L195.069 60.7923C195.26 59.7176 195.883 58.1996 197.286 56.843C199.01 55.1763 201.983 53.691 206.955 53.691C211.652 53.691 214.494 55.1668 216.158 56.8312C217.521 58.1945 218.136 59.7227 218.325 60.8017L206.948 64.5938Z" fill="#00BBD3"/>
</g>
<defs>
<filter id="filter0_d" x="126.963" y="189.709" width="157.507" height="173.321" filterUnits="userSpaceOnUse" color-interpolation-filters="sRGB">
<feFlood flood-opacity="0" result="BackgroundImageFix"/>
<feColorMatrix in="SourceAlpha" type="matrix" values="0 0 0 0 0 0 0 0 0 0 0 0 0 0 0 0 0 0 127 0"/>
<feOffset/>
<feGaussianBlur stdDeviation="5"/>
<feColorMatrix type="matrix" values="0 0 0 0 0 0 0 0 0 0.733333 0 0 0 0 0.827451 0 0 0 0.36 0"/>
<feBlend mode="normal" in2="BackgroundImageFix" result="effect1_dropShadow"/>
<feBlend mode="normal" in="SourceGraphic" in2="effect1_dropShadow" result="shape"/>
</filter>
<filter id="filter1_d" x="56.522" y="130.003" width="295" height="293.567" filterUnits="userSpaceOnUse" color-interpolation-filters="sRGB">
<feFlood flood-opacity="0" result="BackgroundImageFix"/>
<feColorMatrix in="SourceAlpha" type="matrix" values="0 0 0 0 0 0 0 0 0 0 0 0 0 0 0 0 0 0 127 0"/>
<feOffset/>
<feGaussianBlur stdDeviation="5"/>
<feColorMatrix type="matrix" values="0 0 0 0 0 0 0 0 0 0.733333 0 0 0 0 0.827451 0 0 0 0.36 0"/>
<feBlend mode="normal" in2="BackgroundImageFix" result="effect1_dropShadow"/>
<feBlend mode="normal" in="SourceGraphic" in2="effect1_dropShadow" result="shape"/>
</filter>
<filter id="filter2_d" x="194" y="130" width="24" height="24" filterUnits="userSpaceOnUse" color-interpolation-filters="sRGB">
<feFlood flood-opacity="0" result="BackgroundImageFix"/>
<feColorMatrix in="SourceAlpha" type="matrix" values="0 0 0 0 0 0 0 0 0 0 0 0 0 0 0 0 0 0 127 0"/>
<feOffset/>
<feGaussianBlur stdDeviation="5"/>
<feColorMatrix type="matrix" values="0 0 0 0 0 0 0 0 0 0.733333 0 0 0 0 0.827451 0 0 0 0.36 0"/>
<feBlend mode="normal" in2="BackgroundImageFix" result="effect1_dropShadow"/>
<feBlend mode="normal" in="SourceGraphic" in2="effect1_dropShadow" result="shape"/>
</filter>
<filter id="filter3_d" x="194" y="121" width="24" height="24" filterUnits="userSpaceOnUse" color-interpolation-filters="sRGB">
<feFlood flood-opacity="0" result="BackgroundImageFix"/>
<feColorMatrix in="SourceAlpha" type="matrix" values="0 0 0 0 0 0 0 0 0 0 0 0 0 0 0 0 0 0 127 0"/>
<feOffset/>
<feGaussianBlur stdDeviation="5"/>
<feColorMatrix type="matrix" values="0 0 0 0 0 0 0 0 0 0.733333 0 0 0 0 0.827451 0 0 0 0.36 0"/>
<feBlend mode="normal" in2="BackgroundImageFix" result="effect1_dropShadow"/>
<feBlend mode="normal" in="SourceGraphic" in2="effect1_dropShadow" result="shape"/>
</filter>
<filter id="filter4_d" x="194" y="90" width="24" height="24" filterUnits="userSpaceOnUse" color-interpolation-filters="sRGB">
<feFlood flood-opacity="0" result="BackgroundImageFix"/>
<feColorMatrix in="SourceAlpha" type="matrix" values="0 0 0 0 0 0 0 0 0 0 0 0 0 0 0 0 0 0 127 0"/>
<feOffset/>
<feGaussianBlur stdDeviation="5"/>
<feColorMatrix type="matrix" values="0 0 0 0 0 0 0 0 0 0.733333 0 0 0 0 0.827451 0 0 0 0.36 0"/>
<feBlend mode="normal" in2="BackgroundImageFix" result="effect1_dropShadow"/>
<feBlend mode="normal" in="SourceGraphic" in2="effect1_dropShadow" result="shape"/>
</filter>
<filter id="filter5_d" x="188" y="99" width="36" height="36" filterUnits="userSpaceOnUse" color-interpolation-filters="sRGB">
<feFlood flood-opacity="0" result="BackgroundImageFix"/>
<feColorMatrix in="SourceAlpha" type="matrix" values="0 0 0 0 0 0 0 0 0 0 0 0 0 0 0 0 0 0 127 0"/>
<feOffset/>
<feGaussianBlur stdDeviation="5"/>
<feColorMatrix type="matrix" values="0 0 0 0 0 0 0 0 0 0.733333 0 0 0 0 0.827451 0 0 0 0.36 0"/>
<feBlend mode="normal" in2="BackgroundImageFix" result="effect1_dropShadow"/>
<feBlend mode="normal" in="SourceGraphic" in2="effect1_dropShadow" result="shape"/>
</filter>
<filter id="filter6_d" x="194" y="80" width="24" height="24" filterUnits="userSpaceOnUse" color-interpolation-filters="sRGB">
<feFlood flood-opacity="0" result="BackgroundImageFix"/>
<feColorMatrix in="SourceAlpha" type="matrix" values="0 0 0 0 0 0 0 0 0 0 0 0 0 0 0 0 0 0 127 0"/>
<feOffset/>
<feGaussianBlur stdDeviation="5"/>
<feColorMatrix type="matrix" values="0 0 0 0 0 0 0 0 0 0.733333 0 0 0 0 0.827451 0 0 0 0.36 0"/>
<feBlend mode="normal" in2="BackgroundImageFix" result="effect1_dropShadow"/>
<feBlend mode="normal" in="SourceGraphic" in2="effect1_dropShadow" result="shape"/>
</filter>
<filter id="filter7_d" x="162" y="5" width="89" height="89" filterUnits="userSpaceOnUse" color-interpolation-filters="sRGB">
<feFlood flood-opacity="0" result="BackgroundImageFix"/>
<feColorMatrix in="SourceAlpha" type="matrix" values="0 0 0 0 0 0 0 0 0 0 0 0 0 0 0 0 0 0 127 0"/>
<feOffset/>
<feGaussianBlur stdDeviation="5"/>
<feColorMatrix type="matrix" values="0 0 0 0 0 0 0 0 0 0.733333 0 0 0 0 0.827451 0 0 0 0.36 0"/>
<feBlend mode="normal" in2="BackgroundImageFix" result="effect1_dropShadow"/>
<feBlend mode="normal" in="SourceGraphic" in2="effect1_dropShadow" result="shape"/>
</filter>
<filter id="filter8_d" x="173" y="14" width="67.3913" height="74.6458" filterUnits="userSpaceOnUse" color-interpolation-filters="sRGB">
<feFlood flood-opacity="0" result="BackgroundImageFix"/>
<feColorMatrix in="SourceAlpha" type="matrix" values="0 0 0 0 0 0 0 0 0 0 0 0 0 0 0 0 0 0 127 0"/>
<feOffset dy="2"/>
<feGaussianBlur stdDeviation="10"/>
<feColorMatrix type="matrix" values="0 0 0 0 0 0 0 0 0 0.733333 0 0 0 0 0.827451 0 0 0 0.36 0"/>
<feBlend mode="normal" in2="BackgroundImageFix" result="effect1_dropShadow"/>
<feBlend mode="normal" in="SourceGraphic" in2="effect1_dropShadow" result="shape"/>
</filter>
</defs>
</svg>

<svg width="409" height="480" fill="none" xmlns="http://www.w3.org/2000/svg"><path opacity=".5" d="M211.56 227.515l-72.733 9.038 24.677 61.539m48.056-70.577l61.911 9.038-21.647 61.539m-40.264-70.577l-4.117-26.673m4.117 26.673l-48.056 70.577m48.056-70.577l40.264 70.577m0 0l-47.191 53.793-41.129-53.793m88.32 0h-88.32m88.32 0l21.647 15.062m-109.967-15.062l-24.677 17.214" stroke="#00BBD3" stroke-width="2"/><g filter="url(#filter0_d)"><path d="M207.432 200.842l-69.469 36.147m69.469-36.147l66.038 36.147m-66.038-36.147l33.019 50.778m-33.019-50.778L157.26 251.62m-19.297-14.631v78.749m0-78.749l19.297 14.631m-19.297 64.118l19.297-64.118m-19.297 64.118l66.467 36.147m-66.467-36.147l54.889 7.746M157.26 251.62l35.592 71.864M157.26 251.62h83.191m-47.599 71.864l47.599-71.864m-47.599 71.864l80.618-10.758m-80.618 10.758l11.578 28.401m36.021-100.265l33.019 61.106m-33.019-61.106l33.019-14.631m0 75.737v-75.737m0 75.737l-69.04 39.159" stroke="#00BBD3" stroke-width="2"/></g><g filter="url(#filter1_d)"><path d="M217.628 142.253c34.703 3.49 66.718 20.178 89.383 46.589 22.665 26.411 34.234 60.512 32.303 95.205-1.931 34.694-17.215 67.31-42.673 91.063-25.458 23.752-59.129 36.81-94.007 36.454-34.878-.356-68.274-14.099-93.238-38.366s-39.574-57.189-40.791-91.914c-1.218-34.726 11.05-68.583 34.254-94.526 23.203-25.943 55.554-41.974 90.322-44.754" stroke="#00BBD3" stroke-width="4" stroke-linecap="round"/></g><path opacity=".2" fill-rule="evenodd" clip-rule="evenodd" d="M164.798 130.699A150.322 150.322 0 0058.503 314.808a8 8 0 01-15.455 4.141 166.324 166.324 0 01117.609-203.705 8 8 0 014.141 15.455zM355.099 323.68a8 8 0 01-5.657-9.798 150.327 150.327 0 00-106.295-184.11 8 8 0 014.141-15.455 166.324 166.324 0 01117.609 203.706 8 8 0 01-9.798 5.657zm-257.42 58.054a8 8 0 00-11.314 11.314 166.324 166.324 0 00235.219 0 8 8 0 00-11.314-11.314 150.325 150.325 0 01-212.59 0z" fill="#00BBD3"/><g opacity=".2" fill-rule="evenodd" clip-rule="evenodd" fill="#00BBD3"><path d="M116.14 358.553a4 4 0 015.656.04 117.112 117.112 0 0082.558 34.892 117.106 117.106 0 0083.05-33.706 4 4 0 115.616 5.697 125.095 125.095 0 01-88.723 36.008 125.115 125.115 0 01-88.198-37.274 4 4 0 01.041-5.657zm60.368-200.226a3.999 3.999 0 01-2.812 4.908 117.1 117.1 0 00-70.924 54.801 117.11 117.11 0 00-11.401 88.9 4 4 0 01-7.72 2.097 125.11 125.11 0 0144.241-131.782 125.111 125.111 0 0143.707-21.736 4 4 0 014.909 2.812zm140.448 151.631a4 4 0 007.663 2.299 125.114 125.114 0 00-9.681-95.261 125.113 125.113 0 00-74.205-60.514 4 4 0 00-2.299 7.663 117.102 117.102 0 0178.522 145.813z"/><path d="M116.14 358.553a4 4 0 015.656.04 117.112 117.112 0 0082.558 34.892 117.106 117.106 0 0083.05-33.706 4 4 0 115.616 5.697 125.095 125.095 0 01-88.723 36.008 125.115 125.115 0 01-88.198-37.274 4 4 0 01.041-5.657zm60.368-200.226a3.999 3.999 0 01-2.812 4.908 117.1 117.1 0 00-70.924 54.801 117.11 117.11 0 00-11.401 88.9 4 4 0 01-7.72 2.097 125.11 125.11 0 0144.241-131.782 125.111 125.111 0 0143.707-21.736 4 4 0 014.909 2.812zm140.448 151.631a4 4 0 007.663 2.299 125.114 125.114 0 00-9.681-95.261 125.113 125.113 0 00-74.205-60.514 4 4 0 00-2.299 7.663 117.102 117.102 0 0178.522 145.813z"/></g><circle opacity=".2" r="8" transform="matrix(1 0 0 -1 342 352)" fill="#00BBD3"/><circle opacity=".2" r="8" transform="matrix(1 0 0 -1 67 356)" fill="#00BBD3"/><g filter="url(#filter2_d)"><circle r="2" transform="matrix(1 0 0 -1 206 142)" fill="#00BBD3"/></g><g filter="url(#filter3_d)"><circle r="2" transform="matrix(1 0 0 -1 206 133)" fill="#00BBD3"/></g><g filter="url(#filter4_d)"><circle r="2" transform="matrix(1 0 0 -1 206 102)" fill="#00BBD3"/></g><g filter="url(#filter5_d)"><circle r="8" transform="matrix(1 0 0 -1 206 117)" fill="#00BBD3"/></g><g filter="url(#filter6_d)"><circle r="2" transform="matrix(1 0 0 -1 206 92)" fill="#00BBD3"/></g><g filter="url(#filter7_d)"><circle cx="206.5" cy="49.5" r="33.5" stroke="#00BBD3" stroke-width="2"/></g><path opacity=".2" d="M183.345 87.881a45 45 0 1144.087.688" stroke="#00BBD3" stroke-width="8" stroke-linecap="round"/><g filter="url(#filter8_d)"><path fill-rule="evenodd" clip-rule="evenodd" d="M201.22 40.255c0-3.605 2.475-6.255 5.218-6.255s5.218 2.65 5.218 6.255c0 3.604-2.475 6.254-5.218 6.254s-5.218-2.65-5.218-6.254zM206.438 32c-4.126 0-7.218 3.846-7.218 8.255 0 4.408 3.092 8.254 7.218 8.254 4.126 0 7.218-3.846 7.218-8.254 0-4.41-3.092-8.255-7.218-8.255zm.517 19.691c-5.392 0-8.897 1.624-11.059 3.714C193.761 57.47 193 59.93 193 61.5a1 1 0 00.695.953l12.955 4.145a1 1 0 00.621-.004l12.436-4.145a1 1 0 00.684-.949c0-1.566-.757-4.021-2.819-6.083-2.092-2.093-5.469-3.726-10.617-3.726zm-.007 12.903l-11.879-3.802c.191-1.074.814-2.592 2.217-3.949 1.724-1.667 4.697-3.152 9.669-3.152 4.697 0 7.539 1.476 9.203 3.14 1.363 1.363 1.978 2.892 2.167 3.97l-11.377 3.793z" fill="#00BBD3"/></g><defs><filter id="filter0_d" x="126.963" y="189.709" width="157.507" height="173.321" filterUnits="userSpaceOnUse" color-interpolation-filters="sRGB"><feFlood flood-opacity="0" result="BackgroundImageFix"/><feColorMatrix in="SourceAlpha" values="0 0 0 0 0 0 0 0 0 0 0 0 0 0 0 0 0 0 127 0"/><feOffset/><feGaussianBlur stdDeviation="5"/><feColorMatrix values="0 0 0 0 0 0 0 0 0 0.733333 0 0 0 0 0.827451 0 0 0 0.36 0"/><feBlend in2="BackgroundImageFix" result="effect1_dropShadow"/><feBlend in="SourceGraphic" in2="effect1_dropShadow" result="shape"/></filter><filter id="filter1_d" x="56.522" y="130.003" width="295" height="293.567" filterUnits="userSpaceOnUse" color-interpolation-filters="sRGB"><feFlood flood-opacity="0" result="BackgroundImageFix"/><feColorMatrix in="SourceAlpha" values="0 0 0 0 0 0 0 0 0 0 0 0 0 0 0 0 0 0 127 0"/><feOffset/><feGaussianBlur stdDeviation="5"/><feColorMatrix values="0 0 0 0 0 0 0 0 0 0.733333 0 0 0 0 0.827451 0 0 0 0.36 0"/><feBlend in2="BackgroundImageFix" result="effect1_dropShadow"/><feBlend in="SourceGraphic" in2="effect1_dropShadow" result="shape"/></filter><filter id="filter2_d" x="194" y="130" width="24" height="24" filterUnits="userSpaceOnUse" color-interpolation-filters="sRGB"><feFlood flood-opacity="0" result="BackgroundImageFix"/><feColorMatrix in="SourceAlpha" values="0 0 0 0 0 0 0 0 0 0 0 0 0 0 0 0 0 0 127 0"/><feOffset/><feGaussianBlur stdDeviation="5"/><feColorMatrix values="0 0 0 0 0 0 0 0 0 0.733333 0 0 0 0 0.827451 0 0 0 0.36 0"/><feBlend in2="BackgroundImageFix" result="effect1_dropShadow"/><feBlend in="SourceGraphic" in2="effect1_dropShadow" result="shape"/></filter><filter id="filter3_d" x="194" y="121" width="24" height="24" filterUnits="userSpaceOnUse" color-interpolation-filters="sRGB"><feFlood flood-opacity="0" result="BackgroundImageFix"/><feColorMatrix in="SourceAlpha" values="0 0 0 0 0 0 0 0 0 0 0 0 0 0 0 0 0 0 127 0"/><feOffset/><feGaussianBlur stdDeviation="5"/><feColorMatrix values="0 0 0 0 0 0 0 0 0 0.733333 0 0 0 0 0.827451 0 0 0 0.36 0"/><feBlend in2="BackgroundImageFix" result="effect1_dropShadow"/><feBlend in="SourceGraphic" in2="effect1_dropShadow" result="shape"/></filter><filter id="filter4_d" x="194" y="90" width="24" height="24" filterUnits="userSpaceOnUse" color-interpolation-filters="sRGB"><feFlood flood-opacity="0" result="BackgroundImageFix"/><feColorMatrix in="SourceAlpha" values="0 0 0 0 0 0 0 0 0 0 0 0 0 0 0 0 0 0 127 0"/><feOffset/><feGaussianBlur stdDeviation="5"/><feColorMatrix values="0 0 0 0 0 0 0 0 0 0.733333 0 0 0 0 0.827451 0 0 0 0.36 0"/><feBlend in2="BackgroundImageFix" result="effect1_dropShadow"/><feBlend in="SourceGraphic" in2="effect1_dropShadow" result="shape"/></filter><filter id="filter5_d" x="188" y="99" width="36" height="36" filterUnits="userSpaceOnUse" color-interpolation-filters="sRGB"><feFlood flood-opacity="0" result="BackgroundImageFix"/><feColorMatrix in="SourceAlpha" values="0 0 0 0 0 0 0 0 0 0 0 0 0 0 0 0 0 0 127 0"/><feOffset/><feGaussianBlur stdDeviation="5"/><feColorMatrix values="0 0 0 0 0 0 0 0 0 0.733333 0 0 0 0 0.827451 0 0 0 0.36 0"/><feBlend in2="BackgroundImageFix" result="effect1_dropShadow"/><feBlend in="SourceGraphic" in2="effect1_dropShadow" result="shape"/></filter><filter id="filter6_d" x="194" y="80" width="24" height="24" filterUnits="userSpaceOnUse" color-interpolation-filters="sRGB"><feFlood flood-opacity="0" result="BackgroundImageFix"/><feColorMatrix in="SourceAlpha" values="0 0 0 0 0 0 0 0 0 0 0 0 0 0 0 0 0 0 127 0"/><feOffset/><feGaussianBlur stdDeviation="5"/><feColorMatrix values="0 0 0 0 0 0 0 0 0 0.733333 0 0 0 0 0.827451 0 0 0 0.36 0"/><feBlend in2="BackgroundImageFix" result="effect1_dropShadow"/><feBlend in="SourceGraphic" in2="effect1_dropShadow" result="shape"/></filter><filter id="filter7_d" x="162" y="5" width="89" height="89" filterUnits="userSpaceOnUse" color-interpolation-filters="sRGB"><feFlood flood-opacity="0" result="BackgroundImageFix"/><feColorMatrix in="SourceAlpha" values="0 0 0 0 0 0 0 0 0 0 0 0 0 0 0 0 0 0 127 0"/><feOffset/><feGaussianBlur stdDeviation="5"/><feColorMatrix values="0 0 0 0 0 0 0 0 0 0.733333 0 0 0 0 0.827451 0 0 0 0.36 0"/><feBlend in2="BackgroundImageFix" result="effect1_dropShadow"/><feBlend in="SourceGraphic" in2="effect1_dropShadow" result="shape"/></filter><filter id="filter8_d" x="173" y="14" width="67.391" height="74.646" filterUnits="userSpaceOnUse" color-interpolation-filters="sRGB"><feFlood flood-opacity="0" result="BackgroundImageFix"/><feColorMatrix in="SourceAlpha" values="0 0 0 0 0 0 0 0 0 0 0 0 0 0 0 0 0 0 127 0"/><feOffset dy="2"/><feGaussianBlur stdDeviation="10"/><feColorMatrix values="0 0 0 0 0 0 0 0 0 0.733333 0 0 0 0 0.827451 0 0 0 0.36 0"/><feBlend in2="BackgroundImageFix" result="effect1_dropShadow"/><feBlend in="SourceGraphic" in2="effect1_dropShadow" result="shape"/></filter></defs></svg>
